!!!COM: Palestrina, Giovanni Perluigi da
!!!OPR: Missa In illo tempore
!!!OMD: Credo
!!!OTL: First Section
**kern	**kern	**kern	**kern
*Ibass	*Itenor	*Icalto	*Icant
!Bassus	!Tenor	!Altus	!Cantus
*clefF4	*clefGv2	*clefG2	*clefG2
*k[]	*k[]	*k[]	*k[]
*A:aeo	*A:aeo	*A:aeo	*A:aeo
*M4/2	*M4/2	*M4/2	*M4/2
=1	=1	=1	=1
0r	0r	0e	0r
=2	=2	=2	=2
0r	0r	1e	0r
.	.	1d	.
=3	=3	=3	=3
0r	0r	1.f	0a
.	.	4e	.
.	.	4d	.
=4	=4	=4	=4
0r	0r	2c	1a
.	.	2d	.
.	.	1e	1g
=5	=5	=5	=5
0r	0r	2.A	1.cc
.	.	4B	.
.	.	4c	.
.	.	4d	.
.	.	[2e	4b
.	.	.	4a
=6	=6	=6	=6
2r	0r	4e]	2g
.	.	4d	.
2A	.	2c	2a
2A	.	1B	1b
2G	.	.	.
=7	=7	=7	=7
2.c	2r	2.A	0e
.	2A	.	.
8B	.	8G	.
8A	.	8F	.
2c	2A	1E	.
2B	2G	.	.
=8	=8	=8	=8
2.A	2.c	1r	2r
.	.	.	2a
8G	8B	.	.
8F	8A	.	.
1E	2c	2r	2a
.	2B	2e	2g
=9	=9	=9	=9
1F	1A	2e	2cc
.	.	2d	4b
.	.	.	4a
1E	[1e	2.g	2cc
.	.	.	2b
.	.	8f	.
.	.	8e	.
=10	=10	=10	=10
2C	2e]	2g	2e
2D	4d	2f	2.a
.	4c	.	.
1E	1B	1e	.
.	.	.	8g#
.	.	.	8f#
.	.	.	2g#
=11	=11	=11	=11
2r	1A	2.c	0a
1AA	.	.	.
.	.	8B	.
.	.	8A	.
.	2r	[1c	.
2AA	[2E	.	.
=12	=12	=12	=12
2.C	2E]	1c]	2r
.	2E	.	1e
4D	.	.	.
[1E	2.G	1B	.
.	.	.	2e
.	4A	.	.
=13	=13	=13	=13
2E]	2B	0r	2.g
2.C	2.c	.	.
.	.	.	4f
.	.	.	1e
4D	4B	.	.
4E	4G	.	.
4F	4A	.	.
=14	=14	=14	=14
1G	4B	0r	2.d
.	4c	.	.
.	2.d	.	.
.	.	.	4e
2F	.	.	2f
.	4c	.	.
2E	[2c	.	2g
=15	=15	=15	=15
1D	2c]	1r	2a
.	2B	.	4g
.	.	.	4f
1C	[1c	2r	1e
.	.	[2e	.
=16	=16	=16	=16
2r	1c]	2e]	2r
1C	.	2e	1e
.	1r	2.g	.
2C	.	.	2e
.	.	4f	.
=17	=17	=17	=17
2.E	1r	1e	2.g
4F	.	.	4a
2G	2r	2d	2b
2C	[2E	4c	[2cc
.	.	4d	.
=18	=18	=18	=18
1C	2E]	4e	4cc]
.	.	4f	4b
.	2E	1g	4g
.	.	.	4a
1r	2.G	.	4b
.	.	.	4cc
.	.	4f	[2dd
.	4A	4e	.
=19	=19	=19	=19
0r	2B	2d	2dd]
.	2c	2e	1cc
.	1G	1d	.
.	.	.	2b
=20	=20	=20	=20
2r	1A	2.c	2cc
1A	.	.	1cc
.	.	4d	.
.	2r	2.e	.
2A	[2e	.	2cc
.	.	4f#	.
=21	=21	=21	=21
2G	2e]	1g	2b
2E	2e	.	2g
2G	2d	1r	2b
2G	2B	.	2b
=22	=22	=22	=22
2F	2d	2r	1a
2D	2d	1f	.
2.F	2c	.	2r
.	2A	2f	[2a
4G	.	.	.
=23	=23	=23	=23
1A	1.c	2e	2a]
.	.	2c	2a
[1E	.	2.e	2g
.	4B	.	2e
.	4A	8d	.
.	.	8c	.
=24	=24	=24	=24
1E]	1G	2B	2g
.	.	2c	2g
1D	1A	[1d	2f
.	.	.	2d
=25	=25	=25	=25
1D	1A	1d]	2.f
.	.	.	4g
2.F	1A	2r	2.a
.	.	[2A	.
4G	.	.	8g
.	.	.	8f
=26	=26	=26	=26
1A	2.c	2A]	1e
.	.	2.c	.
.	4d	.	.
2.AA	2e	.	2.c
.	.	4d	.
.	[2c	[2e	.
4BB	.	.	4d
=27	=27	=27	=27
2.C	4c]	4e]	1e
.	4B	4d	.
.	1A	2c	.
4D	.	.	.
1E	.	1B	1e
.	2G#	.	.
=28	=28	=28	=28
1AA	1A	2A	2r
.	.	2c	2e
1r	1r	2c	2e
.	.	2d	2f
=29	=29	=29	=29
1r	2r	2e	2g
.	2A	2c	2e
2r	2A	2f	2a
2E	2B	[2e	2g
=30	=30	=30	=30
2E	2c	2e]	2g
2F	2A	2.d	2a
2G	2d	.	2.b
.	.	4G	.
2E	[2e	[2g	.
.	.	.	4g
=31	=31	=31	=31
1A	2e]	2g]	1cc
.	4d	2f#	.
.	4c	.	.
1G	2d	2.g	1b
.	[2e	.	.
.	.	4e	.
=32	=32	=32	=32
2A	2e]	1f	1r
2B	2d	.	.
2c	2.e	1e	2r
[2C	.	.	[2e
.	4d	.	.
=33	=33	=33	=33
2C]	2c	1r	2e]
2D	4B	.	2f
.	4A	.	.
2E	1G	2r	2g
2C	.	[2c	2e
=34	=34	=34	=34
1F	2r	2c]	1a
.	2A	2d	.
1E	2B	1e	1g
.	[2c	.	.
=35	=35	=35	=35
1.F	2c]	1c	2r
.	2A	.	1a
.	1d	1f	.
2G	.	.	2b
=36	=36	=36	=36
2.A	0c	1e	2.cc
4A	.	.	4cc
1F	.	2r	1a
.	.	[2f	.
=37	=37	=37	=37
2B-	1r	2f]	1dd
2B-	.	2g	.
1A	2r	2a	[1cc
.	[2A	2e	.
=38	=38	=38	=38
0r	2A]	2f	2cc]
.	2B	2.g	4b
.	.	.	4a
.	2.c	.	2g
.	.	4f	.
.	.	[2e	[2cc
.	4c	.	.
=39	=39	=39	=39
0r	1A	4e]	4cc]
.	.	4d	4b
.	.	4c	1a
.	.	8B	.
.	.	8A	.
.	2d	2B	.
.	2d	2B	2g#
=40	=40	=40	=40
2r	1c	0A	0a
1F	.	.	.
.	2r	.	.
2F	2c	.	.
=41	=41	=41	=41
2E	2c	1r	0r
1D	2B	.	.
.	1A	1f	.
[2F	.	.	.
=42	=42	=42	=42
2F]	1.c	1f	2r
4E	.	.	2cc
4D	.	.	.
2.C	.	[1e	1cc
.	4B	.	.
4D	4A	.	.
=43	=43	=43	=43
4E	4G	2e]	1b
4F	4A	.	.
2G	4B	1d	.
.	4c	.	.
1D	2.d	.	1a
.	.	[2f	.
.	8c	.	.
.	8B	.	.
=44	=44	=44	=44
0r	1A	2f]	1.cc
.	.	4e	.
.	.	4d	.
.	1r	2c	.
.	.	2e	4b
.	.	.	4a
=45	=45	=45	=45
0r	0r	2e	2g
.	.	2c	2a
.	.	2d	2f
.	.	2e	2g
=46	=46	=46	=46
2r	0r	4A	2.a
.	.	4B	.
2A	.	4c	.
.	.	4d	4b
2A	.	4e	4cc
.	.	4c	4a
2F	.	2f	[2dd
=47	=47	=47	=47
2G	0r	1e	2dd]
2A	.	.	2cc#
2D	.	2.f	2dd
[2F	.	.	[2a
.	.	8e	.
.	.	8d	.
=48	=48	=48	=48
2F]	2r	2.c	2a]
2F	2c	.	2a
.	.	4d	.
1E	2c	1e	[1g
.	[2B	.	.
=49	=49	=49	=49
1D	2B]	0r	2g]
.	1A	.	2f
2F	.	.	2a
4E	[2c	.	4g
4D	.	.	4f
=50	=50	=50	=50
2C	2c]	0r	2e
1E	4B	.	2g
.	4A	.	.
.	2G	.	2g
2C	2A	.	2e
=51	=51	=51	=51
2.D	2F	0r	1f
.	1A	.	.
4C	.	.	.
1BB	.	.	1d
.	2G#	.	.
=52	=52	=52	=52
2AA	[0A	2r	1r
2.D	.	1f	.
.	.	.	2r
4E	.	.	.
4F	.	2f	[2cc
4G	.	.	.
=53	=53	=53	=53
4A	1A]	1e	2cc]
4B	.	.	.
2c	.	.	2cc
2G	1r	2d	2b
2F	.	2f	2a
=54	=54	=54	=54
2.A	0r	2c	1cc
.	.	2e	.
8G	.	.	.
8F	.	.	.
2E	.	2e	2g
2F	.	2c	2a
=55	=55	=55	=55
1D	1r	1d	2a
.	.	.	2f
1r	2r	2e	2g
.	[2c	4A	2a
.	.	4B	.
=56	=56	=56	=56
0r	2c]	4c	4e
.	.	4d	4f
.	2c	4e	4g
.	.	4f	4a
.	2B	2g	2b
.	2A	[2f	[2cc
=57	=57	=57	=57
0r	1c	2f]	4cc]
.	.	.	8b
.	.	.	8a
.	.	2e	4g
.	.	.	4a
.	2G	2d	2b
.	2A	4c	[2cc
.	.	4B	.
=58	=58	=58	=58
0r	2A	2A	4cc]
.	.	.	4b
.	2F	1d	2a
.	2G	.	2g
.	2A	2c	4f
.	.	.	4e
=59	=59	=59	=59
0r	1D	2.d	4f
.	.	.	4g
.	.	.	1a
.	.	4c	.
.	1E	1B	.
.	.	.	2g#
=60	=60	=60	=60
2r	1A	1A	2a
1D	.	.	1f
.	1r	2r	.
2E	.	[2c	2g
=61	=61	=61	=61
2.F	1A	2c]	2.a
.	.	2d	.
4F	.	.	4a
1E	2B	2.e	1g
.	[2c	.	.
.	.	4e	.
=62	=62	=62	=62
2.F	4c]	2A	2.a
.	4c	.	.
.	2A	1c	.
8E	.	.	8g
8D	.	.	8f
2C	4c	.	4e
.	4B	.	4f
2E	4A	2c	[2g
.	4G	.	.
=63	=63	=63	=63
1D	2A	1d	2g]
.	2A	.	2f#
1G	2G	2r	1g
.	2B	2d	.
=64	=64	=64	=64
2r	2c	2e	2r
2C	2c	2e	2g
2C	1c	1e	2g
2C	.	.	2g
=65	=65	=65	=65
1C	1.c	1.e	1g
[1C	.	.	[1g
.	2c	2e	.
=66	=66	=66	=66
2C]	1c	1e	2g]
2C	.	.	2g
[1G	2r	2r	[1g
.	2B	2d	.
=67	=67	=67	=67
0G]	2B	2d	1g_
.	2B	2d	.
.	1B	1d	1g_
=68	=68	=68	=68
1r	2c	2e	1g]
.	2d	2B	.
1C	2.e	1c	2r
.	.	.	2e
.	4d	.	.
=69	=69	=69	=69
2C	2.c	1G	2e
2C	.	.	2e
.	4B	.	.
1C	2A	1c	1e
.	2G	.	.
=70	=70	=70	=70
2D	2d	2A	2f
2E	1c	2G	2g
1F	.	2c	[1a
.	4B	2d	.
.	4A	.	.
=71	=71	=71	=71
0E	0B	2e	2a]
.	.	2e	2g#
.	.	1g	2r
.	.	.	2b
=72	=72	=72	=72
0r	2r	2d	1dd
.	2B	2d	.
.	1d	1f	2a
.	.	.	2a
=73	=73	=73	=73
1r	1A	2e	1cc
.	.	4c	.
.	.	4d	.
1E	1r	4e	2b
.	.	4f	.
.	.	[2g	4g
.	.	.	4a
=74	=74	=74	=74
1G	1B	4g]	4b
.	.	4f	4cc
.	.	2.d	2.dd
2D	1d	.	.
.	.	4e	4cc
2D	.	[2f	[2a
=75	=75	=75	=75
1F	2A	4f]	4a]
.	.	4e	4b
.	2A	4c	1cc
.	.	4d	.
1E	1c	[1e	.
.	.	.	4b
.	.	.	4a
=76	=76	=76	=76
1E	1B	1e]	4g
.	.	.	4f
.	.	.	4e
.	.	.	4d
[1AA	[1A	2.e	2.c
.	.	4d	4d
=77	=77	=77	=77
1AA]	1A]	1c	1e
[1E	[1G#	[1B	[1e
=78	=78	=78	=78
1E]	1G#]	1B]	1e]
*-	*-	*-	*-
!!!CDT: 1525/^1526/-1594/2/2
!!!OCY: Italia
!!!AGN: Mass (Parody)
!!!AST: renaissance, vocal
!!!ASW: Motet 1518 (Moulu)
!!!PWK: Masses, Book 10
!!!RNB: Cadence finals: E,G,C
!!!YOR: Le Opere Complete, v. 27, p. 1
!!!YOO: Rome, Italy: Fratelli Scalera
!!!END: 1992//
!!!EED: John Miller
!!!YEC: Copyright 2000, John Miller
!!!YEN: United States of America
!!!YEM: Rights to all derivative electronic formats reserved.
!!!YEM: Refer to licensing agreement for further details.
!!!YEM: This file must be accompanied by the licensing agreement.
!!!YEM: A copy of the licensing agreement may be found at http://www.music-cog.ohio-state.edu/HumdrumDatabases/Palestrina/license.txt
!!!EMD: converted to Humdrum by Bret Aarden
